icons/plexis/48/BlankUp.svg

<svg viewBox="0 0 48 48" xmlns="http://www.w3.org/2000/svg" xmlns:xlink="http://www.w3.org/1999/xlink">
  <linearGradient id="a" gradientTransform="matrix(0 -1 1 0 0 48)" gradientUnits="userSpaceOnUse" x1="1" x2="47">
    <stop offset="0" stop-color="#afd9ed"/>
    <stop offset="1" stop-color="#bfe1f1"/>
  </linearGradient>
  <path d="m1 24c0-22.703.297-23 23-23 22.703 0 23 .297 23 23 0 22.703-.297 23-23 23-22.703 0-23-.297-23-23z" fill="url(#a)"/>
  <path d="m17 13v9 6 9h10.5c4.155 0 7.5-3.345 7.5-7.5 0-1.694-.562-3.247-1.502-4.5.94-1.253 1.502-2.806 1.502-4.5 0-4.155-3.345-7.5-7.5-7.5zm3 3h7.5c2.493 0 4.5 2.01 4.5 4.5 0 .928-.278 1.787-.756 2.502-1.102-.634-2.377-1-3.744-1h-7.5v-6m11.244 10.998c.477.715.756 1.574.756 2.502 0 2.493-2.01 4.5-4.5 4.5h-7.5v-6h7.5c1.367 0 2.643-.368 3.744-1z" opacity=".1"/>
  <path d="m16 12v15h10.5c4.155 0 7.5-3.345 7.5-7.5 0-4.155-3.345-7.5-7.5-7.5zm3 3h7.5c2.493 0 4.5 2.007 4.5 4.5 0 2.493-2.007 4.5-4.5 4.5h-7.5z" fill="#1887c0"/>
  <path d="m16 21v15h10.5c4.155 0 7.5-3.345 7.5-7.5 0-1.694-.562-3.247-1.502-4.5-.606.81-1.375 1.488-2.256 1.996.478.715.758 1.575.758 2.504 0 2.493-2.01 4.5-4.5 4.5h-7.5v-9h6 1.5c1.567 0 2.916-.806 3.715-2.02-1.095-.624-2.36-.984-3.715-.984h-10.5" fill="#181878"/>
</svg>

<svg xmlns="http://www.w3.org/2000/svg" viewBox="0 0 48 48">
 <defs>
  <linearGradient id="linearGradient4309" x1="1" x2="47" gradientUnits="userSpaceOnUse" gradientTransform="matrix(0,-1,1,0,0,48)">
   <stop style="stop-color:#afd9ed;stop-opacity:1"/>
   <stop offset="1" style="stop-color:#bfe1f1;stop-opacity:1"/>
  </linearGradient>
 </defs>
 <path d="M 1,24 C 1,1.297 1.297,1 24,1 46.703,1 47,1.297 47,24 47,46.703 46.703,47 24,47 1.297,47 1,46.703 1,24 Z" style="fill:url(#linearGradient4309);fill-opacity:1"/>
 <path d="m 17,13 0,9 0,6 0,9 10.5,0 C 31.655,37 35,33.655 35,29.5 35,27.806 34.438,26.253 33.498,25 34.438,23.747 35,22.194 35,20.5 35,16.345 31.655,13 27.5,13 L 17,13 m 3,3 7.5,0 c 2.493,0 4.5,2.01 4.5,4.5 0,0.928 -0.278,1.787 -0.756,2.502 -1.102,-0.634 -2.377,-1 -3.744,-1 l -7.5,0 0,-6 M 31.244,27 c 0.477,0.715 0.756,1.574 0.756,2.502 0,2.493 -2.01,4.5 -4.5,4.5 l -7.5,0 0,-6 7.5,0 c 1.367,0 2.643,-0.368 3.744,-1 z" style="fill:#000;opacity:0.1;fill-opacity:1;stroke:none"/>
 <path d="m 16,12 0,15 10.5,0 C 30.655,27 34,23.655 34,19.5 34,15.345 30.655,12 26.5,12 L 16,12 Z m 3,3 7.5,0 c 2.493,0 4.5,2.007 4.5,4.5 0,2.493 -2.007,4.5 -4.5,4.5 l -7.5,0 0,-9 z" style="fill:#1887c0;opacity:1;fill-opacity:1;stroke:none"/>
 <path d="m 16,21 0,15 10.5,0 C 30.655,36 34,32.655 34,28.5 34,26.806 33.438,25.253 32.498,24 31.892,24.81 31.123,25.488 30.242,25.996 30.72,26.711 31,27.571 31,28.5 31,30.993 28.99,33 26.5,33 l -7.5,0 0,-9 6,0 1.5,0 c 1.567,0 2.916,-0.806 3.715,-2.02 -1.095,-0.624 -2.36,-0.984 -3.715,-0.984 l -10.5,0" style="fill:#181878;opacity:1;fill-opacity:1;stroke:none"/>
</svg>
